packages/rainbowkit/src/wallets/walletConnectors/compassWallet/compassWallet.svg

<svg xmlns="http://www.w3.org/2000/svg" width="28" height="28" fill="none" viewBox="0 0 745 746"><path fill="#0D233D" d="M406.201 203.01c0 18.612-15.089 33.7-33.701 33.7s-33.701-15.088-33.701-33.7 15.089-33.701 33.701-33.701 33.701 15.089 33.701 33.701"/><path fill="#0D233D" fill-rule="evenodd" d="M471.309 58.994c-42.787-77.992-154.83-77.992-197.618 0l-60.435 110.161a112.7 112.7 0 0 1-44.601 44.601L58.494 274.191c-77.992 42.787-77.992 154.831 0 197.618l110.161 60.435a112.7 112.7 0 0 1 44.601 44.601l60.435 110.161c42.787 77.992 154.831 77.992 197.618 0l60.435-110.161a112.7 112.7 0 0 1 44.601-44.601l110.161-60.435c77.992-42.787 77.992-154.831 0-197.618l-110.161-60.435a112.7 112.7 0 0 1-44.601-44.601zm-45.282 81.114c-18.455-49.872-88.994-49.872-107.448 0l-39.25 106.071a57.29 57.29 0 0 1-33.844 33.844l-106.071 39.25c-49.872 18.454-49.872 88.993 0 107.448l106.071 39.249a57.29 57.29 0 0 1 33.844 33.845l39.25 106.07c18.454 49.873 88.993 49.873 107.448 0l39.249-106.07a57.29 57.29 0 0 1 33.844-33.845l106.071-39.249c49.872-18.455 49.872-88.994 0-107.448l-106.071-39.25a57.29 57.29 0 0 1-33.844-33.844z" clip-rule="evenodd"/></svg>

<svg width="745" height="746" viewBox="0 0 745 746" fill="none" xmlns="http://www.w3.org/2000/svg">
<path d="M406.201 203.01C406.201 221.622 391.112 236.71 372.5 236.71C353.888 236.71 338.799 221.622 338.799 203.01C338.799 184.398 353.888 169.309 372.5 169.309C391.112 169.309 406.201 184.398 406.201 203.01Z" fill="#0D233D"/>
<path fill-rule="evenodd" clip-rule="evenodd" d="M471.309 58.994C428.522 -18.998 316.479 -18.998 273.691 58.9939L213.256 169.155C202.937 187.964 187.464 203.437 168.655 213.756L58.494 274.191C-19.498 316.978 -19.498 429.022 58.4939 471.809L168.655 532.244C187.464 542.563 202.937 558.036 213.256 576.845L273.691 687.006C316.478 764.998 428.522 764.998 471.309 687.006L531.744 576.845C542.063 558.036 557.536 542.563 576.345 532.244L686.506 471.809C764.498 429.022 764.498 316.978 686.506 274.191L576.345 213.756C557.536 203.437 542.063 187.964 531.744 169.155L471.309 58.994ZM426.027 140.108C407.572 90.2357 337.033 90.2357 318.579 140.108L279.329 246.179C273.527 261.858 261.164 274.221 245.485 280.023L139.414 319.273C89.5417 337.727 89.5416 408.266 139.414 426.721L245.485 465.97C261.164 471.772 273.527 484.135 279.329 499.815L318.579 605.885C337.033 655.758 407.572 655.758 426.027 605.885L465.276 499.815C471.078 484.135 483.441 471.772 499.12 465.97L605.191 426.721C655.063 408.266 655.063 337.727 605.191 319.273L499.12 280.023C483.441 274.221 471.078 261.858 465.276 246.179L426.027 140.108Z" fill="#0D233D"/>
</svg>
